; generated by PrusaSlicer 2.9.4 on 2026-03-27 at 01:54:36 UTC

; 

; external perimeters extrusion width = 0.45mm
; perimeters extrusion width = 0.45mm
; infill extrusion width = 0.45mm
; solid infill extrusion width = 0.45mm
; top infill extrusion width = 0.40mm
; first layer extrusion width = 0.42mm

; external perimeters extrusion width = 0.45mm
; perimeters extrusion width = 0.45mm
; infill extrusion width = 0.45mm
; solid infill extrusion width = 0.45mm
; top infill extrusion width = 0.40mm
; first layer extrusion width = 0.42mm

; external perimeters extrusion width = 0.45mm
; perimeters extrusion width = 0.45mm
; infill extrusion width = 0.45mm
; solid infill extrusion width = 0.45mm
; top infill extrusion width = 0.40mm
; first layer extrusion width = 0.42mm

; external perimeters extrusion width = 0.45mm
; perimeters extrusion width = 0.45mm
; infill extrusion width = 0.45mm
; solid infill extrusion width = 0.45mm
; top infill extrusion width = 0.40mm
; first layer extrusion width = 0.42mm

; external perimeters extrusion width = 0.45mm
; perimeters extrusion width = 0.45mm
; infill extrusion width = 0.45mm
; solid infill extrusion width = 0.45mm
; top infill extrusion width = 0.40mm
; first layer extrusion width = 0.42mm

; external perimeters extrusion width = 0.45mm
; perimeters extrusion width = 0.45mm
; infill extrusion width = 0.45mm
; solid infill extrusion width = 0.45mm
; top infill extrusion width = 0.40mm
; first layer extrusion width = 0.42mm

; external perimeters extrusion width = 0.45mm
; perimeters extrusion width = 0.45mm
; infill extrusion width = 0.45mm
; solid infill extrusion width = 0.45mm
; top infill extrusion width = 0.40mm
; first layer extrusion width = 0.42mm

; external perimeters extrusion width = 0.45mm
; perimeters extrusion width = 0.45mm
; infill extrusion width = 0.45mm
; solid infill extrusion width = 0.45mm
; top infill extrusion width = 0.40mm
; first layer extrusion width = 0.42mm

M190 S60 ; set bed temperature and wait for it to be reached
M104 S230 ; set temperature
;TYPE:Custom
G28 ; home all axes
G1 Z5 F5000 ; lift nozzle
M109 S230 ; set temperature and wait for it to be reached
G21 ; set units to millimeters
G90 ; use absolute coordinates
M82 ; use absolute distances for extrusion
G92 E0
; Filament gcode
M107
;LAYER_CHANGE
;Z:0
;HEIGHT:0
G1 E-2 F2400
G92 E0
G1 Z0 F7800
G1 X47.652 Y45.128
G1 E2 F2400
;TYPE:Skirt/Brim
;WIDTH:0.42
;HEIGHT:0.35
G1 F1800
G1 X48.813 Y44.112 E2.07719
G1 X50.887 Y42.663 E2.20378
G1 X52.497 Y41.919 E2.29252
G1 X53.611 Y41.589 E2.35065
G1 X55.288 Y41.335 E2.43552
G1 X75.326 Y41.078 E3.43821
G1 X124.461 Y41.21 E5.89671
G1 X126.196 Y41.465 E5.98445
G1 X127.31 Y41.795 E6.04258
G1 X128.921 Y42.539 E6.13137
G1 X130.994 Y43.988 E6.25792
G1 X132.861 Y45.717 E6.38524
G1 X133.818 Y46.83 E6.45868
G1 X134.97 Y48.473 E6.55908
G1 X135.854 Y50.077 E6.65072
G1 X136.586 Y51.822 E6.7454
G1 X137.113 Y53.576 E6.83704
G1 X137.403 Y55.015 E6.91049
G1 X137.596 Y56.836 E7.00211
G1 X137.604 Y58.554 E7.08807
G1 X136.824 Y78.617 E8.09269
G1 X136.538 Y81.118 E8.21864
G1 X136.243 Y82.423 E8.28558
G1 X135.849 Y83.702 E8.35254
G1 X135.36 Y84.947 E8.41947
G1 X134.778 Y86.152 E8.48643
G1 X134.106 Y87.309 E8.55338
G1 X133.349 Y88.412 E8.62032
G1 X132.51 Y89.455 E8.6873
G1 X131.487 Y90.537 E8.7618
G1 X129.744 Y92.022 E8.87637
G1 X128.214 Y93.067 E8.96908
G1 X126.583 Y93.834 E9.05926
G1 X125.452 Y94.175 E9.11837
G1 X123.695 Y94.439 E9.20727
G1 X54.575 Y94.563 E12.66572
G1 X52.792 Y94.3 E12.7559
G1 X51.661 Y93.958 E12.81502
G1 X50.029 Y93.191 E12.90525
G1 X47.932 Y91.704 E13.03388
G1 X46.485 Y90.388 E13.13175
G1 X45.13 Y88.842 E13.23461
G1 X44.349 Y87.755 E13.30158
G1 X43.538 Y86.409 E13.38021
G1 X42.884 Y85.071 E13.45473
G1 X42.321 Y83.604 E13.53335
G1 X41.782 Y81.619 E13.63627
G1 X41.526 Y80.069 E13.71488
G1 X41.409 Y78.35 E13.80109
G1 X42.205 Y57.07 E14.86659
G1 X42.405 Y55.139 E14.96373
G1 X42.909 Y52.901 E15.07851
G1 X43.656 Y50.851 E15.18768
G1 X44.602 Y48.99 E15.29214
G1 X45.989 Y46.955 E15.41536
G1 X47.611 Y45.173 E15.53593
G1 E13.53593 F2400
G92 E0
G1 X52.1 Y49.939 F7800
G1 E2 F2400
G1 F1800
G1 X53.064 Y49.102 E2.06388
G1 X54.078 Y48.397 E2.12567
G1 X54.94 Y48.023 E2.17269
G1 X55.443 Y47.926 E2.19832
G1 X64.444 Y47.946 E2.64869
G1 X65.542 Y48.344 E2.70713
G1 X66.684 Y49.127 E2.77641
G1 X67.607 Y49.93 E2.83762
G1 X68.83 Y51.335 E2.93082
G1 X69.802 Y52.941 E3.02475
G1 X70.514 Y51.68 E3.09721
G1 X71.254 Y50.651 E3.16063
G1 X72.139 Y49.681 E3.22633
G1 X73.105 Y48.843 E3.29032
G1 X74.185 Y48.102 E3.35585
G1 X74.95 Y47.775 E3.39748
G1 X75.482 Y47.669 E3.42462
G1 X84.425 Y47.679 E3.87209
G1 X85.659 Y48.13 E3.93783
G1 X86.726 Y48.873 E4.00289
G1 X87.658 Y49.684 E4.06471
G1 X88.859 Y51.066 E4.15632
G1 X90.008 Y52.991 E4.26849
G1 X90.612 Y51.915 E4.33023
G1 X91.362 Y50.87 E4.39459
G1 X92.261 Y49.886 E4.46128
G1 X93.211 Y49.063 E4.52417
G1 X94.227 Y48.357 E4.58607
G1 X95.092 Y47.982 E4.63324
G1 X95.528 Y47.893 E4.65551
G1 X104.589 Y47.907 E5.10888
G1 X105.65 Y48.285 E5.16524
G1 X106.847 Y49.1 E5.2377
G1 X107.743 Y49.88 E5.29714
G1 X108.968 Y51.284 E5.39037
G1 X109.951 Y52.904 E5.48518
G1 X110.566 Y51.813 E5.54784
G1 X111.306 Y50.784 E5.61126
G1 X112.206 Y49.8 E5.67798
G1 X113.157 Y48.976 E5.74094
G1 X114.204 Y48.253 E5.8046
G1 X115.001 Y47.908 E5.84805
G1 X115.503 Y47.805 E5.87369
G1 X124.674 Y47.849 E6.33257
G1 X125.714 Y48.264 E6.3886
G1 X126.763 Y48.993 E6.45252
G1 X128.275 Y50.411 E6.55624
G1 X129.394 Y51.912 E6.64992
G1 X129.977 Y52.973 E6.71049
G1 X130.434 Y54.073 E6.77009
G1 X130.766 Y55.199 E6.82883
G1 X130.989 Y56.446 E6.89221
G1 X131.06 Y57.325 E6.93633
G1 X131.051 Y58.438 E6.99202
G1 X130.749 Y60.433 E7.09298
G1 X130.404 Y61.575 E7.15267
G1 X129.929 Y62.69 E7.21331
G1 X129.333 Y63.751 E7.2742
G1 X128.566 Y64.812 E7.33971
G1 X127.678 Y65.779 E7.4054
G1 X126.71 Y66.612 E7.4693
G1 X125.6 Y67.363 E7.53636
G1 X124.851 Y67.673 E7.57692
G1 X124.173 Y67.753 E7.61108
G1 X124.125 Y68.034 E7.62534
G1 X124.886 Y68.32 E7.66602
G1 X126.351 Y69.376 E7.75638
G1 X126.983 Y69.954 E7.79923
G1 X128.05 Y71.174 E7.88033
G1 X128.547 Y71.892 E7.92402
G1 X129.334 Y73.359 E8.00732
G1 X129.655 Y74.165 E8.05073
G1 X130.095 Y75.798 E8.13535
G1 X130.278 Y77.377 E8.21488
G1 X130.282 Y78.261 E8.25911
G1 X130.088 Y79.967 E8.34502
G1 X129.893 Y80.805 E8.38807
G1 X129.621 Y81.662 E8.43306
G1 X128.962 Y83.134 E8.51376
G1 X128.516 Y83.89 E8.55768
G1 X127.545 Y85.18 E8.63847
G1 X126.931 Y85.83 E8.68321
G1 X125.65 Y86.903 E8.76682
G1 X124.789 Y87.463 E8.81821
G1 X123.824 Y87.814 E8.86959
G1 X114.992 Y87.889 E9.31152
G1 X113.633 Y87.506 E9.38217
G1 X111.973 Y86.347 E9.48347
G1 X110.848 Y85.246 E9.56223
G1 X110.297 Y84.574 E9.60571
G1 X109.216 Y82.863 E9.70698
G1 X108.114 Y84.633 E9.8113
G1 X107.006 Y85.896 E9.89537
G1 X105.709 Y86.986 E9.98014
G1 X104.914 Y87.512 E10.02784
G1 X103.945 Y87.887 E10.07983
G1 X94.942 Y87.959 E10.53031
G1 X93.54 Y87.521 E10.6038
G1 X92.749 Y86.993 E10.65139
G1 X91.445 Y85.899 E10.73656
G1 X90.361 Y84.67 E10.81856
G1 X89.853 Y83.941 E10.86302
G1 X89.127 Y82.605 E10.9391
G1 X87.997 Y84.426 E11.04633
G1 X86.897 Y85.678 E11.12972
G1 X85.6 Y86.768 E11.21449
G1 X84.805 Y87.294 E11.26219
G1 X83.774 Y87.681 E11.31729
G1 X74.939 Y87.756 E11.75937
G1 X73.58 Y87.374 E11.83
G1 X71.91 Y86.206 E11.93197
G1 X70.795 Y85.114 E12.01006
G1 X70.244 Y84.441 E12.05358
G1 X69.146 Y82.701 E12.15653
G1 X68.446 Y83.982 E12.22957
G1 X67.966 Y84.672 E12.27163
G1 X66.859 Y85.935 E12.35566
G1 X65.549 Y87.034 E12.44122
G1 X64.697 Y87.587 E12.49204
G1 X63.732 Y87.938 E12.54342
G1 X54.846 Y88.005 E12.98805
G1 X53.392 Y87.56 E13.06413
G1 X51.881 Y86.471 E13.15732
G1 X50.739 Y85.351 E13.23735
G1 X50.23 Y84.731 E13.27749
G1 X49.253 Y83.205 E13.36815
G1 X48.617 Y81.771 E13.44664
G1 X48.346 Y80.915 E13.49157
G1 X48.036 Y79.334 E13.57218
G1 X47.965 Y78.453 E13.6164
G1 X48.03 Y76.703 E13.70402
G1 X48.326 Y75.143 E13.78347
G1 X48.902 Y73.499 E13.87063
G1 X49.729 Y71.964 E13.95787
G1 X50.697 Y70.679 E14.03837
G1 X51.925 Y69.474 E14.12445
G1 X53.378 Y68.434 E14.21386
G1 X54.201 Y68.09 E14.25849
G1 X55.009 Y68.043 E14.29899
G1 X55.055 Y67.753 E14.31368
G1 X54.122 Y67.447 E14.36281
G1 X53.065 Y66.712 E14.42723
G1 X51.564 Y65.314 E14.52986
G1 X50.857 Y64.439 E14.58615
G1 X49.797 Y62.643 E14.6905
G1 X49.355 Y61.564 E14.74884
G1 X49.026 Y60.428 E14.80802
G1 X48.751 Y58.475 E14.9067
G1 X48.754 Y57.28 E14.96649
G1 X48.895 Y56.037 E15.02908
G1 X49.145 Y54.925 E15.08611
G1 X49.888 Y52.978 E15.19038
G1 X50.443 Y51.987 E15.24721
G1 X51.241 Y50.876 E15.31565
G1 X52.059 Y49.983 E15.37624
G1 E13.37624 F2400
G92 E0
G1 X104.207 Y67.838 F7800
G1 E2 F2400
G1 F1800
G1 X104.907 Y67.758 E2.03525
G1 X105.688 Y67.432 E2.0776
G1 X106.798 Y66.674 E2.14485
G1 X107.763 Y65.836 E2.2088
G1 X108.636 Y64.882 E2.2735
G1 X109.411 Y63.803 E2.33997
G1 X110.008 Y62.734 E2.40123
G1 X110.937 Y64.299 E2.49229
G1 X112.268 Y65.823 E2.59353
G1 X113.16 Y66.591 E2.65242
G1 X114.366 Y67.398 E2.72503
G1 X115.109 Y67.624 E2.76389
G1 X115.069 Y67.915 E2.77859
G1 X114.457 Y67.929 E2.80922
G1 X113.546 Y68.27 E2.85789
G1 X112.007 Y69.358 E2.95219
G1 X111.378 Y69.929 E2.9947
G1 X110.282 Y71.18 E3.07792
G1 X109.176 Y72.957 E3.18265
G1 X108.123 Y71.282 E3.28164
G1 X107.011 Y70.012 E3.3661
G1 X105.706 Y68.915 E3.4514
G1 X104.812 Y68.34 E3.50459
G1 X104.163 Y68.126 E3.53878
G1 X104.198 Y67.897 E3.55037
G1 E1.55037 F2400
G92 E0
G1 X95.185 Y67.714 F7800
G1 E2 F2400
G1 F1800
G1 X95.143 Y68 E2.01446
G1 X94.503 Y68.016 E2.04649
G1 X93.562 Y68.377 E2.09692
G1 X92.063 Y69.443 E2.18895
G1 X91.435 Y70.014 E2.23142
G1 X90.346 Y71.254 E2.31399
G1 X89.205 Y73.092 E2.42223
G1 X88.502 Y71.771 E2.4971
G1 X88.013 Y71.063 E2.54015
G1 X86.92 Y69.812 E2.62327
G1 X85.623 Y68.716 E2.70823
G1 X84.793 Y68.166 E2.75805
G1 X84.044 Y67.897 E2.79787
G1 X84.091 Y67.614 E2.81222
G1 X84.804 Y67.538 E2.8481
G1 X85.612 Y67.196 E2.892
G1 X86.705 Y66.443 E2.95841
G1 X87.67 Y65.603 E3.02242
G1 X88.528 Y64.663 E3.0861
G1 X89.302 Y63.584 E3.15254
G1 X89.898 Y62.516 E3.21374
G1 X90.982 Y64.368 E3.32111
G1 X92.301 Y65.887 E3.42177
G1 X93.227 Y66.684 E3.4829
G1 X94.271 Y67.409 E3.5465
G1 X95.128 Y67.695 E3.59171
G1 X95.131 Y68.349 F7800
G1 F1800
G1 X103.63 Y68.32 E4.01696
G1 X104.645 Y68.643 E4.07026
G1 X106.189 Y69.729 E4.16471
G1 X107.318 Y70.839 E4.24393
G1 X108.324 Y72.18 E4.32781
G1 X109.173 Y73.788 E4.41879
G1 X110.107 Y72.032 E4.51831
G1 X111.052 Y70.776 E4.59696
G1 X112.234 Y69.618 E4.67975
G1 X113.685 Y68.586 E4.76884
G1 X114.547 Y68.263 E4.8149
G1 X123.75 Y68.265 E5.27538
G1 X124.712 Y68.618 E5.32665
G1 X125.49 Y69.14 E5.37353
G1 X126.736 Y70.195 E5.45522
G1 X127.778 Y71.387 E5.53444
G1 X128.674 Y72.791 E5.61778
G1 X129.327 Y74.274 E5.69886
G1 X129.574 Y75.069 E5.74051
G1 X129.872 Y76.627 E5.81988
G1 X129.937 Y78.242 E5.90075
G1 X129.749 Y79.908 E5.98464
G1 X129.559 Y80.72 E6.02637
G1 X129.003 Y82.269 E6.10872
G1 X128.229 Y83.699 E6.19008
G1 X127.778 Y84.346 E6.22954
G1 X126.694 Y85.579 E6.31169
G1 X125.456 Y86.618 E6.39256
G1 X124.618 Y87.162 E6.44255
G1 X123.735 Y87.479 E6.48949
G1 X115.014 Y87.544 E6.92586
G1 X113.796 Y87.202 E6.98916
G1 X112.19 Y86.079 E7.08721
G1 X111.102 Y85.013 E7.16342
G1 X110.084 Y83.664 E7.24798
G1 X109.218 Y82.035 E7.34029
G1 X108.299 Y83.762 E7.43817
G1 X107.835 Y84.431 E7.47891
G1 X106.769 Y85.645 E7.55975
G1 X105.503 Y86.71 E7.64253
G1 X104.74 Y87.214 E7.68828
G1 X103.851 Y87.553 E7.73589
G1 X94.967 Y87.614 E8.18041
G1 X93.711 Y87.221 E8.24626
G1 X92.247 Y86.164 E8.33661
G1 X91.158 Y85.099 E8.41282
G1 X90.147 Y83.761 E8.49673
G1 X89.714 Y83.02 E8.53967
G1 X89.139 Y81.742 E8.60979
G1 X88.184 Y83.555 E8.71232
G1 X87.718 Y84.224 E8.75311
G1 X86.66 Y85.428 E8.83331
G1 X85.394 Y86.492 E8.91606
G1 X84.632 Y86.995 E8.96174
G1 X83.683 Y87.347 E9.01238
G1 X74.961 Y87.411 E9.4488
G1 X73.744 Y87.069 E9.51205
G1 X72.138 Y85.947 E9.61007
G1 X71.049 Y84.881 E9.68632
G1 X70.031 Y83.532 E9.77088
G1 X69.136 Y81.841 E9.86661
G1 X68.564 Y83.1 E9.9358
G1 X68.152 Y83.801 E9.97648
G1 X67.687 Y84.47 E10.01725
G1 X66.622 Y85.684 E10.09805
G1 X65.343 Y86.757 E10.18158
G1 X64.526 Y87.287 E10.23031
G1 X63.644 Y87.603 E10.27719
G1 X54.87 Y87.66 E10.71621
G1 X53.562 Y87.259 E10.78466
G1 X52.109 Y86.212 E10.87427
G1 X50.994 Y85.118 E10.95243
G1 X50.008 Y83.812 E11.03431
G1 X49.56 Y83.048 E11.07862
G1 X48.94 Y81.648 E11.15523
G1 X48.681 Y80.83 E11.19816
G1 X48.378 Y79.286 E11.27689
G1 X48.307 Y77.61 E11.36082
G1 X48.374 Y76.736 E11.40468
G1 X48.657 Y75.238 E11.48096
G1 X49.215 Y73.644 E11.56546
G1 X49.593 Y72.872 E11.60847
G1 X50.463 Y71.516 E11.68908
G1 X51.532 Y70.295 E11.77028
G1 X52.152 Y69.734 E11.81212
G1 X53.555 Y68.731 E11.89841
G1 X54.448 Y68.389 E11.94626
G1 X63.535 Y68.367 E12.40093
G1 X64.537 Y68.7 E12.45376
G1 X65.376 Y69.248 E12.5039
G1 X66.626 Y70.301 E12.58568
G1 X67.711 Y71.544 E12.66823
G1 X68.184 Y72.23 E12.70992
G1 X69.043 Y73.862 E12.8022
G1 X70.041 Y71.921 E12.9114
G1 X71.017 Y70.624 E12.99262
G1 X71.571 Y70.038 E13.03297
G1 X72.847 Y68.967 E13.11632
G1 X73.665 Y68.437 E13.16509
G1 X74.554 Y68.12 E13.21231
G1 X83.639 Y68.122 E13.66688
G1 X84.621 Y68.466 E13.71894
G1 X86.08 Y69.511 E13.80874
G1 X87.217 Y70.63 E13.88856
G1 X88.208 Y71.951 E13.97119
G1 X89.209 Y73.917 E14.08158
G1 X90.164 Y72.117 E14.18353
G1 X91.126 Y70.841 E14.26349
G1 X91.68 Y70.256 E14.3038
G1 X92.934 Y69.201 E14.3858
G1 X93.703 Y68.692 E14.43194
G1 X94.595 Y68.35 E14.47974
G1 X95.071 Y68.349 E14.50356
G1 X95.072 Y68.694 F7800
G1 F1800
G1 X103.603 Y68.665 E14.93041
G1 X104.515 Y68.963 E14.97842
G1 X105.317 Y69.485 E15.0263
G1 X105.971 Y69.996 E15.06783
G1 X107.063 Y71.071 E15.1445
G1 X107.579 Y71.706 E15.18544
G1 X108.435 Y73.056 E15.26542
G1 X109.18 Y74.777 E15.35925
G1 X109.997 Y72.894 E15.46195
G1 X110.833 Y71.594 E15.53928
G1 X111.87 Y70.413 E15.61792
G1 X112.46 Y69.878 E15.65777
G1 X113.857 Y68.886 E15.7435
G1 X114.638 Y68.597 E15.78517
G1 X123.661 Y68.599 E16.23664
G1 X124.538 Y68.916 E16.2833
G1 X125.282 Y69.415 E16.32812
G1 X126.489 Y70.436 E16.40722
G1 X127.506 Y71.599 E16.48452
G1 X127.966 Y72.262 E16.5249
G1 X128.708 Y73.649 E16.60361
G1 X129.24 Y75.153 E16.68343
G1 X129.417 Y75.927 E16.72316
G1 X129.589 Y77.419 E16.79831
G1 X129.534 Y79.027 E16.87881
G1 X129.228 Y80.622 E16.96007
G1 X128.977 Y81.415 E17.00169
G1 X128.349 Y82.817 E17.07856
G1 X127.942 Y83.507 E17.11864
G1 X127.018 Y84.735 E17.19553
G1 X126.458 Y85.327 E17.2363
G1 X125.261 Y86.333 E17.31454
G1 X124.478 Y86.846 E17.36138
G1 X123.702 Y87.135 E17.40281
G1 X115.036 Y87.199 E17.83643
G1 X113.917 Y86.877 E17.89469
G1 X112.408 Y85.812 E17.9871
G1 X111.356 Y84.78 E18.06084
G1 X110.847 Y84.158 E18.10105
G1 X109.959 Y82.767 E18.18362
G1 X109.211 Y81.048 E18.27742
G1 X108.4 Y82.914 E18.37922
G1 X107.555 Y84.229 E18.45743
G1 X106.523 Y85.403 E18.53564
G1 X105.929 Y85.943 E18.57581
G1 X104.567 Y86.915 E18.65953
G1 X103.758 Y87.22 E18.70279
G1 X95.043 Y87.276 E19.13886
G1 X93.881 Y86.92 E19.19967
G1 X92.464 Y85.897 E19.28712
G1 X91.421 Y84.875 E19.36018
G1 X90.434 Y83.569 E19.44209
G1 X90.021 Y82.864 E19.48297
G1 X89.41 Y81.486 E19.55839
G1 X89.151 Y80.676 E19.60094
G1 X88.291 Y82.696 E19.71079
G1 X87.446 Y84.011 E19.789
G1 X86.948 Y84.622 E19.82844
G1 X85.83 Y85.717 E19.90674
G1 X85.188 Y86.215 E19.94739
G1 X84.458 Y86.697 E19.99116
G1 X83.649 Y87.002 E20.03442
G1 X74.984 Y87.066 E20.46799
G1 X73.864 Y86.745 E20.52629
G1 X72.355 Y85.679 E20.61873
G1 X71.304 Y84.647 E20.69243
G1 X70.795 Y84.026 E20.73261
G1 X69.906 Y82.634 E20.81525
G1 X69.118 Y80.813 E20.91453
G1 X68.594 Y82.259 E20.99149
G1 X68.258 Y82.941 E21.02953
G1 X67.408 Y84.268 E21.10838
G1 X66.385 Y85.433 E21.18596
G1 X65.801 Y85.965 E21.22549
G1 X64.387 Y86.971 E21.31232
G1 X63.61 Y87.259 E21.35378
G1 X54.894 Y87.315 E21.7899
G1 X53.733 Y86.958 E21.85068
G1 X52.984 Y86.458 E21.89574
G1 X51.763 Y85.428 E21.97567
G1 X50.772 Y84.304 E22.05065
G1 X50.294 Y83.62 E22.0924
G1 X49.861 Y82.88 E22.1353
G1 X49.266 Y81.538 E22.20875
G1 X49.015 Y80.745 E22.25037
G1 X48.72 Y79.239 E22.32716
G1 X48.651 Y77.629 E22.40779
G1 X48.716 Y76.782 E22.45029
G1 X48.992 Y75.321 E22.52468
